Gurmukhi/0A38.svg

<svg enable-background="new 0 0 336 592" viewBox="0 0 336 592" xmlns="http://www.w3.org/2000/svg"><path d="m243.366333 276.000122c.001953 36.662079.008331 72.824188.002777 108.986267-.001144 7.497986-1.624237 8.524811-8.184799 5.154572-4.296692-2.207276-8.447067-4.731873-12.85495-6.679993-3.56662-1.576355-4.795715-3.814758-4.760757-7.710266.177917-19.829224-.070633-39.662842.184188-59.490357.063111-4.909851-1.556579-6.231079-6.276184-6.168182-17.328018.230927-34.661026.082916-51.992157.088501-7.38208.00235-7.234039.033325-8.154602 7.345703-1.599243 12.703675-5.335876 24.732392-12.469665 35.477875-4.547501 6.849853-10.470673 11.933075-19.372277 10.745972-9.899787-1.320191-15.507652-7.962952-15.753585-18.079224-.194146-7.986115 2.111778-15.480957 5.233497-22.696686 3.78537-8.749786 8.515953-16.984649 14.748848-24.257202 2.054535-2.397186 3.005562-4.932342 2.999443-8.156586-.042999-22.637146-3.725097-44.683639-10.087654-66.365615-1.539711-5.246964-4.062965-7.615754-9.874931-7.154419-7.120835.5652-14.32779-.055527-21.483711.209304-3.848961.142441-5.810662-1.336776-6.882859-4.91687-1.096313-3.660614-2.713859-7.161743-3.929603-10.790848-1.466881-4.378738-.4748-5.885726 3.986595-6.342697 1.321602-.135345 2.663109-.102905 3.995491-.102768 61.325546.006043 122.651306.089035 183.976272-.093994 5.579316-.016647 8.733277 1.517609 10.043732 7.03656.724243 3.050217 2.348572 5.875 3.301361 8.885529 1.287689 4.068649-.124389 6.119324-4.379486 6.182846-8.496979.126846-17.005798.274216-25.49266-.043564-4.912491-.183929-6.724793 1.240814-6.634781 6.445603.299698 17.325637.112945 34.659667.112457 52.490539m-36.901413-58.831497c-22.86235 0-45.724716 0-68.329834 0-.333343 1.341156-.539444 1.688888-.467773 1.96434.33348 1.281586.733307 2.546433 1.12825 3.811401 6.347381 20.330048 11.500793 40.913727 12.48941 62.299683.186432 4.033234 2.213623 4.504334 5.457596 4.492432 18.46785-.067841 36.937698-.153443 55.403122.072784 4.480865.054871 5.636093-1.46167 5.590637-5.756286-.200714-18.965149-.02301-37.93393-.109833-56.900803-.050827-11.101547 1.70662-9.904358-11.161575-9.983551z"/></svg>

<svg version="1.1" id="Layer_1" xmlns="http://www.w3.org/2000/svg" xmlns:xlink="http://www.w3.org/1999/xlink" x="0px" y="0px"
	 width="100%" viewBox="0 0 336 592" enable-background="new 0 0 336 592" xml:space="preserve">
<path fill="#000000" opacity="1.000000" stroke="none" 
	d="
M243.366333,276.000122 
	C243.368286,312.662201 243.374664,348.824310 243.369110,384.986389 
	C243.367966,392.484375 241.744873,393.511200 235.184311,390.140961 
	C230.887619,387.933685 226.737244,385.409088 222.329361,383.460968 
	C218.762741,381.884613 217.533646,379.646210 217.568604,375.750702 
	C217.746521,355.921478 217.497971,336.087860 217.752792,316.260345 
	C217.815903,311.350494 216.196213,310.029266 211.476608,310.092163 
	C194.148590,310.323090 176.815582,310.175079 159.484451,310.180664 
	C152.102371,310.183014 152.250412,310.213989 151.329849,317.526367 
	C149.730606,330.230042 145.993973,342.258759 138.860184,353.004242 
	C134.312683,359.854095 128.389511,364.937317 119.487907,363.750214 
	C109.588120,362.430023 103.980255,355.787262 103.734322,345.670990 
	C103.540176,337.684875 105.846100,330.190033 108.967819,322.974304 
	C112.753189,314.224518 117.483772,305.989655 123.716667,298.717102 
	C125.771202,296.319916 126.722229,293.784760 126.716110,290.560516 
	C126.673111,267.923370 122.991013,245.876877 116.628456,224.194901 
	C115.088745,218.947937 112.565491,216.579147 106.753525,217.040482 
	C99.632690,217.605682 92.425735,216.984955 85.269814,217.249786 
	C81.420853,217.392227 79.459152,215.913010 78.386955,212.332916 
	C77.290642,208.672302 75.673096,205.171173 74.457352,201.542068 
	C72.990471,197.163330 73.982552,195.656342 78.443947,195.199371 
	C79.765549,195.064026 81.107056,195.096466 82.439438,195.096603 
	C143.764984,195.102646 205.090744,195.185638 266.415710,195.002609 
	C271.995026,194.985962 275.148987,196.520218 276.459442,202.039169 
	C277.183685,205.089386 278.808014,207.914169 279.760803,210.924698 
	C281.048492,214.993347 279.636414,217.044022 275.381317,217.107544 
	C266.884338,217.234390 258.375519,217.381760 249.888657,217.063980 
	C244.976166,216.880051 243.163864,218.304794 243.253876,223.509583 
	C243.553574,240.835220 243.366821,258.169250 243.366333,276.000122 
M206.464920,217.168625 
	C183.602570,217.168625 160.740204,217.168625 138.135086,217.168625 
	C137.801743,218.509781 137.595642,218.857513 137.667313,219.132965 
	C138.000793,220.414551 138.400620,221.679398 138.795563,222.944366 
	C145.142944,243.274414 150.296356,263.858093 151.284973,285.244049 
	C151.471405,289.277283 153.498596,289.748383 156.742569,289.736481 
	C175.210419,289.668640 193.680267,289.583038 212.145691,289.809265 
	C216.626556,289.864136 217.781784,288.347595 217.736328,284.052979 
	C217.535614,265.087830 217.713318,246.119049 217.626495,227.152176 
	C217.575668,216.050629 219.333115,217.247818 206.464920,217.168625 
z"/>
</svg>
